img/home/link-y.svg

<svg width="195" height="195" viewBox="0 0 195 195" fill="none" xmlns="http://www.w3.org/2000/svg">
<circle cx="97.5" cy="97.5" r="97.5" transform="rotate(-90 97.5 97.5)" fill="#E9CF49"/>
<path d="M103.826 29.3965L109.465 17.1119L107.809 16.9839L103.221 27.4191L103.168 27.4151L100.238 16.3987L98.5817 16.2707L102.266 29.2759L103.826 29.3965Z" fill="#1F1F1F"/>
<path d="M111.274 30.4377L113.65 17.9797L112.096 17.6833L109.72 30.1413L111.274 30.4377Z" fill="#1F1F1F"/>
<path d="M122.056 31.8496L116.044 30.0482L117.296 25.8723L122.995 27.5803L123.399 26.2333L117.699 24.5252L118.867 20.6271L124.879 22.4285L125.287 21.0646L117.761 18.8091L114.12 30.958L121.647 33.2135L122.056 31.8496Z" fill="#1F1F1F"/>
<path d="M133.482 27.5424L133.56 27.5823L131.603 37.8784L132.935 38.5562L141.766 28.8203L140.294 28.0707L133.333 36.1456L133.271 36.1137L135.422 25.5909L133.996 24.8653L126.754 32.7967L126.691 32.7648L129.124 22.3856L127.651 21.636L124.977 34.5056L126.308 35.1834L133.482 27.5424Z" fill="#1F1F1F"/>
<path d="M148.651 34.0799L140.254 43.5845L141.44 44.6319L144.437 41.2398L146.63 43.1776C148.415 44.7546 150.798 44.6197 152.392 42.8149C153.981 41.0168 153.829 38.6538 152.044 37.0768L148.651 34.0799ZM148.906 36.1812L150.803 37.8572C152.166 39.0617 152.285 40.4803 151.174 41.7384C150.057 43.003 148.622 43.0606 147.265 41.8619L145.368 40.1859L148.906 36.1812Z" fill="#1F1F1F"/>
<path d="M161.122 46.2701C158.862 43.4748 155.479 43.3167 152.349 45.8477C149.219 48.3787 148.672 51.7143 150.932 54.5096C153.192 57.3049 156.569 57.4685 159.699 54.9375C162.829 52.4065 163.383 49.0654 161.122 46.2701ZM159.988 47.1874C161.618 49.2036 161.11 51.7058 158.676 53.6731C156.25 55.6349 153.697 55.6084 152.067 53.5923C150.437 51.5761 150.945 49.0739 153.371 47.1121C155.804 45.1448 158.358 45.1713 159.988 47.1874Z" fill="#1F1F1F"/>
<path d="M160.802 59.3383L162.296 61.9769L159.267 66.8128L160.18 68.4266L163.315 63.2783C164.535 64.4158 166.2 64.574 167.738 63.7036C169.726 62.5778 170.238 60.4496 169.034 58.3234L166.692 54.1856L155.655 60.4341L156.435 61.8108L160.802 59.3383ZM166.248 56.2552L167.707 58.8327C168.512 60.2553 168.209 61.5579 166.886 62.307C165.533 63.0734 164.313 62.7034 163.512 61.2884L162.018 58.6498L166.248 56.2552Z" fill="#1F1F1F"/>
<path d="M162.209 73.7336L172.72 69.6993L174.153 73.4328L175.482 72.9226L172.05 63.9787L170.72 64.4889L172.153 68.2224L161.642 72.2566L162.209 73.7336Z" fill="#1F1F1F"/>
<path d="M164.307 80.2919L169.66 79.0576L170.922 84.5302L172.292 84.2142L171.03 78.7416L175.278 77.7621L176.652 83.7229L178.04 83.403L176.31 75.9006L163.952 78.7503L164.307 80.2919Z" fill="#1F1F1F"/>
<path d="M179.197 91.9963C178.962 88.4093 176.288 86.33 172.272 86.5939C168.255 86.8577 165.885 89.2682 166.121 92.8552C166.357 96.4422 169.021 98.522 173.038 98.2582C177.055 97.9944 179.433 95.5833 179.197 91.9963ZM177.741 92.0919C177.911 94.6791 176.053 96.4306 172.931 96.6357C169.818 96.8402 167.747 95.3467 167.577 92.7595C167.407 90.1723 169.265 88.4208 172.378 88.2163C175.5 88.0113 177.572 89.5047 177.741 92.0919Z" fill="#1F1F1F"/>
<path d="M167.2 108.534L167.789 102.445L178.995 103.529L179.147 101.954L166.524 100.733L165.783 108.397L167.2 108.534Z" fill="#1F1F1F"/>
<path d="M165.087 111.563L177.527 114.034L177.835 112.482L165.395 110.011L165.087 111.563Z" fill="#1F1F1F"/>
<path d="M175.255 123.34C176.403 119.934 174.723 116.993 170.908 115.707C167.094 114.422 163.985 115.748 162.837 119.154C161.688 122.561 163.36 125.499 167.174 126.785C170.989 128.07 174.106 126.747 175.255 123.34ZM173.872 122.874C173.044 125.331 170.659 126.243 167.694 125.244C164.737 124.247 163.391 122.077 164.219 119.62C165.047 117.164 167.432 116.252 170.389 117.248C173.354 118.248 174.7 120.417 173.872 122.874Z" fill="#1F1F1F"/>
</svg>

<?xml version="1.0" encoding="utf-8"?>
<!-- Generator: Adobe Illustrator 26.0.3, SVG Export Plug-In . SVG Version: 6.00 Build 0)  -->
<svg version="1.1" id="Capa_1" xmlns="http://www.w3.org/2000/svg" xmlns:xlink="http://www.w3.org/1999/xlink" x="0px" y="0px"
	 viewBox="0 0 195 195" style="enable-background:new 0 0 195 195;" xml:space="preserve">
<style type="text/css">
	.st0{fill:#0066CC;}
	.st1{fill:#FFFFFF;}
</style>
<circle class="st0" cx="97.5" cy="97.5" r="97.5"/>
<path class="st1" d="M148.7,34.1l-8.4,9.5l1.2,1l3-3.4l2.2,1.9c1.8,1.6,4.2,1.4,5.8-0.4c1.6-1.8,1.4-4.2-0.3-5.7L148.7,34.1z
	 M148.9,36.2l1.9,1.7c1.4,1.2,1.5,2.6,0.4,3.9c-1.1,1.3-2.6,1.3-3.9,0.1l-1.9-1.7L148.9,36.2z"/>
<path class="st1" d="M161.1,46.3c-2.3-2.8-5.6-3-8.8-0.4c-3.1,2.5-3.7,5.9-1.4,8.7c2.3,2.8,5.6,3,8.8,0.4
	C162.8,52.4,163.4,49.1,161.1,46.3z M160,47.2c1.6,2,1.1,4.5-1.3,6.5c-2.4,2-5,1.9-6.6-0.1c-1.6-2-1.1-4.5,1.3-6.5
	C155.8,45.1,158.4,45.2,160,47.2z"/>
<path class="st1" d="M160.8,59.3l1.5,2.6l-3,4.8l0.9,1.6l3.1-5.1c1.2,1.1,2.9,1.3,4.4,0.4c2-1.1,2.5-3.3,1.3-5.4l-2.3-4.1l-11,6.2
	l0.8,1.4L160.8,59.3z M166.2,56.3l1.5,2.6c0.8,1.4,0.5,2.7-0.8,3.5c-1.4,0.8-2.6,0.4-3.4-1l-1.5-2.6L166.2,56.3z"/>
<path class="st1" d="M162.2,73.7l10.5-4l1.4,3.7l1.3-0.5l-3.4-8.9l-1.3,0.5l1.4,3.7l-10.5,4L162.2,73.7z"/>
<path class="st1" d="M164.3,80.3l5.4-1.2l1.3,5.5l1.4-0.3l-1.3-5.5l4.2-1l1.4,6l1.4-0.3l-1.7-7.5L164,78.8L164.3,80.3z"/>
<path class="st1" d="M179.2,92c-0.2-3.6-2.9-5.7-6.9-5.4c-4,0.3-6.4,2.7-6.2,6.3c0.2,3.6,2.9,5.7,6.9,5.4S179.4,95.6,179.2,92z
	 M177.7,92.1c0.2,2.6-1.7,4.3-4.8,4.5c-3.1,0.2-5.2-1.3-5.4-3.9c-0.2-2.6,1.7-4.3,4.8-4.5C175.5,88,177.6,89.5,177.7,92.1z"/>
<path class="st1" d="M167.2,108.5l0.6-6.1l11.2,1.1l0.2-1.6l-12.6-1.2l-0.7,7.7L167.2,108.5z"/>
<path class="st1" d="M165.1,111.6l12.4,2.5l0.3-1.6l-12.4-2.5L165.1,111.6z"/>
<path class="st1" d="M175.3,123.3c1.1-3.4-0.5-6.3-4.3-7.6c-3.8-1.3-6.9,0-8.1,3.4c-1.1,3.4,0.5,6.3,4.3,7.6
	C171,128.1,174.1,126.7,175.3,123.3z M173.9,122.9c-0.8,2.5-3.2,3.4-6.2,2.4c-3-1-4.3-3.2-3.5-5.6c0.8-2.5,3.2-3.4,6.2-2.4
	C173.4,118.2,174.7,120.4,173.9,122.9z"/>
</svg>
